alura/assets/api/cursos/desenho-volumes-iluminacao.svg

<svg width="50" height="50" viewBox="0 0 50 50" fill="none" xmlns="http://www.w3.org/2000/svg">
<path d="M31.5 35.7L42.6 47.8L10.8 48.1H9.00005H7.60005L1.30005 44.3L2.00005 28.7L29.4 18.6L29.8 31.6L31.5 35.7Z" fill="#FCC34F"/>
<path d="M29.9 11.4V8.09998L1.30005 18.3L1.50005 29.2L29.6 19.1L29.9 11.4Z" fill="#FDCF72"/>
<path d="M15.8 2.59998C8.2 2.59998 2 5.69998 2 9.59998V43.4C2 43.4 2.8 48 15.1 48C27.4 48 29.5 44.2 29.5 44.2V9.59998C29.6 5.69998 23.4 2.59998 15.8 2.59998Z" stroke="#444444" stroke-width="2.5" stroke-miterlimit="10"/>
<path d="M29.3999 31.2H41.9999C41.9999 31.2 49.4999 31.9999 49.4999 39.7999C49.4999 47.5999 42.3999 49.2 42.3999 49.2H16.3999L29.3999 45.4V31.2Z" fill="#444444"/>
<path d="M15.8 16.1C22.7587 16.1 28.4 13.1898 28.4 9.59998C28.4 6.01013 22.7587 3.09998 15.8 3.09998C8.84116 3.09998 3.19995 6.01013 3.19995 9.59998C3.19995 13.1898 8.84116 16.1 15.8 16.1Z" stroke="#444444" stroke-miterlimit="10"/>
<path d="M15.8 16.1V48.1" stroke="#444444" stroke-miterlimit="10"/>
<path d="M20.1001 15.6V47" stroke="#444444" stroke-width="0.75" stroke-miterlimit="10"/>
<path d="M23.5 14.5V45.9" stroke="#444444" stroke-width="0.5" stroke-miterlimit="10"/>
<path d="M26.3999 13.2V45.9" stroke="#444444" stroke-width="0.25" stroke-miterlimit="10"/>
</svg>

<svg xmlns="http://www.w3.org/2000/svg" fill="none" viewBox="0 0 50 50"><path fill="#FCC34F" d="M31.5 35.7l11.1 12.1-31.8.3H7.6l-6.3-3.8.7-15.6 27.4-10.1.4 13 1.7 4.1z"/><path fill="#FDCF72" d="M29.9 11.4V8.1L1.3 18.3l.2 10.9 28.1-10.1.3-7.7z"/><path stroke="#444" stroke-miterlimit="10" stroke-width="2.5" d="M15.8 2.6C8.2 2.6 2 5.7 2 9.6v33.8S2.8 48 15.1 48c12.3 0 14.4-3.8 14.4-3.8V9.6c.1-3.9-6.1-7-13.7-7z"/><path fill="#444" d="M29.4 31.2H42s7.5.8 7.5 8.6-7.1 9.4-7.1 9.4h-26l13-3.8V31.2z"/><path stroke="#444" stroke-miterlimit="10" d="M15.8 16.1c6.959 0 12.6-2.91 12.6-6.5s-5.641-6.5-12.6-6.5S3.2 6.01 3.2 9.6s5.641 6.5 12.6 6.5zm0 0v32"/><path stroke="#444" stroke-miterlimit="10" stroke-width=".75" d="M20.1 15.6V47"/><path stroke="#444" stroke-miterlimit="10" stroke-width=".5" d="M23.5 14.5v31.4"/><path stroke="#444" stroke-miterlimit="10" stroke-width=".25" d="M26.4 13.2v32.7"/></svg>
